public/images/logos/pubmed.svg

<?xml version="1.0" encoding="UTF-8" standalone="no"?>
<svg role="img" viewBox="0 0 32 32" version="1.1" id="svg1" sodipodi:docname="Simpleicons-Team-Simple-Pubmed.svg" width="32" height="32" inkscape:version="1.4-beta2 (9aaf4f34, 2024-07-30)" xmlns:inkscape="http://www.inkscape.org/namespaces/inkscape" xmlns:sodipodi="http://sodipodi.sourceforge.net/DTD/sodipodi-0.dtd" xmlns="http://www.w3.org/2000/svg" xmlns:svg="http://www.w3.org/2000/svg" xmlns:rdf="http://www.w3.org/1999/02/22-rdf-syntax-ns#" xmlns:cc="http://creativecommons.org/ns#" xmlns:dc="http://purl.org/dc/elements/1.1/">
  <defs id="defs1" />
  <sodipodi:namedview id="namedview1" pagecolor="#ffffff" bordercolor="#000000" borderopacity="0.25" inkscape:showpageshadow="2" inkscape:pageopacity="0.0" inkscape:pagecheckerboard="0" inkscape:deskcolor="#d1d1d1" inkscape:zoom="6.9403541" inkscape:cx="17.866524" inkscape:cy="18.65899" inkscape:window-width="1440" inkscape:window-height="790" inkscape:window-x="0" inkscape:window-y="0" inkscape:window-maximized="1" inkscape:current-layer="svg1" />
  <title id="title1">PubMed</title>
  <path d="m 10.972667,10.642667 0.008,-1.3400003 C 10.460667,1.8893333 6.794,0 6.794,0 L 6.858,3.0546667 C 4.9726667,1.408 3.466,1.9253333 3.466,1.9253333 L 3.6233333,22.334667 c 0,0 5.624,-2.394667 7.2373337,7.34 C 13.65,18.046667 28.534,32 28.534,32 V 12 c 0,0 -14.508,-12.24 -17.56,-1.357333 z M 24.026,23.897333 l -1.394667,-6.976 -2.538666,6.009334 h -1.28 L 16.519333,17.196 15.124667,23.916 H 12.427333 L 15.218,11.396 h 1.069333 l 3.321334,7.390667 3.344,-7.409334 h 1.158666 l 2.766667,12.52 h -2.850667 z" id="path1" style="stroke-width:1.33333" />
  <metadata id="metadata1">
    <rdf:RDF>
      <cc:Work rdf:about="">
        <dc:title>PubMed</dc:title>
      </cc:Work>
    </rdf:RDF>
  </metadata>
</svg>

<svg width="32" height="32" xmlns="http://www.w3.org/2000/svg">
  <path d="m10.973 10.643.008-1.34C10.46 1.889 6.794 0 6.794 0l.064 3.055c-1.885-1.647-3.392-1.13-3.392-1.13l.157 20.41s5.624-2.395 7.238 7.34C13.65 18.047 28.534 32 28.534 32V12S14.026-.24 10.974 10.643zm13.053 13.254-1.395-6.976-2.538 6.01h-1.28l-2.294-5.735-1.394 6.72h-2.698l2.791-12.52h1.07l3.32 7.39 3.345-7.409h1.158l2.767 12.52h-2.85z" style="stroke-width:1.33333"/>
</svg>
